!!!COM:	Busnoys, Antoine
!!!CDT:	~1430///-1492/11/06
!!!OTL:	In hydraulis
!!!AGN:	Motet
!!!SCT:	Bus2007
!!!SCA:	Bus2007
!!!voices:	4
**kern	**text	**kern	**text	**kern	**text	**kern	**text
*staff4	*staff4	*staff3	*staff3	*staff2	*staff2	*staff1	*staff1
*Ivox	*	*Ivox	*	*Ivox	*	*Ivox	*
*I"Bassus	*	*I"Tenor	*	*I"Altus	*	*I"Superius	*
*I'B	*	*I'T	*	*I'A	*	*I'S	*
*>[A,B]	*>[A,B]	*>[A,B]	*>[A,B]	*>[A,B]	*>[A,B]	*>[A,B]	*>[A,B]
*>A	*>A	*>A	*>A	*>A	*>A	*>A	*>A
*clefF4	*	*clefGv2	*	*clefGv2	*	*clefG2	*
*k[b-]	*	*k[]	*	*k[b-]	*	*k[]	*
*M3/1	*	*M3/1	*	*M3/1	*	*M3/1	*
*met(O)	*	*met(O)	*	*met(O)	*	*met(O)	*
=1-	=1-	=1-	=1-	=1-	=1-	=1-	=1-
!	!	!LO:TX:Z=8:t=Tenor motto notated exclusively in the pattern long-breve-long	!	!	!	!	!
0.r	.	0.r	.	0d	In	0d	In
.	.	.	.	1c	hy-	1e	hy-
=2	=2	=2	=2	=2	=2	=2	=2
0.r	.	0.r	.	1d	-drau-	1f	-drau-
.	.	.	.	1.e	.	1.g	.
.	.	.	.	2d	.	2f	.
=3	=3	=3	=3	=3	=3	=3	=3
0.r	.	0.r	.	1d	.	1f	.
.	.	.	.	2c	.	2e	.
.	.	.	.	2A	.	1f	.
.	.	.	.	1B-	.	.	.
.	.	.	.	.	.	2d	.
=4	=4	=4	=4	=4	=4	=4	=4
0.r	.	0.r	.	2A	.	2.c	.
.	.	.	.	1A	.	.	.
.	.	.	.	.	.	4d	.
.	.	.	.	.	.	2e	.
.	.	.	.	2F	.	1d	.
.	.	.	.	1G	.	.	.
.	.	.	.	.	.	4c	.
.	.	.	.	.	.	4B	.
=5	=5	=5	=5	=5	=5	=5	=5
0.r	.	0.r	.	2.F	.	2A	.
.	.	.	.	.	.	1c	.
.	.	.	.	4G	.	.	.
.	.	.	.	2A	.	.	.
.	.	.	.	1G	.	2d	.
.	.	.	.	.	.	2e	.
.	.	.	.	4F	.	2g	.
.	.	.	.	4E	.	.	.
=6	=6	=6	=6	=6	=6	=6	=6
0.r	.	0.r	.	2D	.	2f	.
.	.	.	.	2C	.	2.e	.
.	.	.	.	2D	.	.	.
.	.	.	.	.	.	4d	.
.	.	.	.	2F	.	1d	.
.	.	.	.	1E	.	.	.
.	.	.	.	.	.	2c#i	.
=7	=7	=7	=7	=7	=7	=7	=7
1r	.	0.r	.	0D	-lis	0.d	-lis
1r	.	.	.	.	.	.	.
1D	Quon-	.	.	1r	.	.	.
=8	=8	=8	=8	=8	=8	=8	=8
1.F	-dam	0.r	.	1.A	quon-	0.r	.
2G	.	.	.	2B-	.	.	.
1A	.	.	.	2.c	-dam	.	.
.	.	.	.	4B-	.	.	.
=9	=9	=9	=9	=9	=9	=9	=9
2F	Py-	0.r	.	1.d	Py-	0.r	.
1G	.	.	.	.	.	.	.
2E	.	.	.	2c	.	.	.
2F	-tha-	.	.	2.d	-tha-	.	.
2D	.	.	.	.	.	.	.
.	.	.	.	4f	.	.	.
=10	=10	=10	=10	=10	=10	=10	=10
2C	-go-	0.r	.	2.e	-go-	0.r	.
2.G	.	.	.	.	.	.	.
.	.	.	.	4d	.	.	.
.	.	.	.	4B-	.	.	.
4D	.	.	.	4A	.	.	.
2F	.	.	.	2.d	.	.	.
1E	.	.	.	.	.	.	.
.	.	.	.	4c#i	.	.	.
.	.	.	.	4c#i	.	.	.
.	.	.	.	4Bni	.	.	.
=11	=11	=11	=11	=11	=11	=11	=11
2D	-ra	0.r	.	1d	-ra	0.r	.
1G	Ad	.	.	.	.	.	.
.	.	.	.	2r	.	.	.
2F	.	.	.	2d	Ad	.	.
2E	.	.	.	2g	.	.	.
2D	.	.	.	2f	.	.	.
=12	=12	=12	=12	=12	=12	=12	=12
2C	.	0.r	.	2e	.	0.r	.
1F	.	.	.	2d	.	.	.
.	.	.	.	1c	.	.	.
2E	.	.	.	.	.	.	.
2D	.	.	.	2f	.	.	.
2C	.	.	.	2e	.	.	.
=13	=13	=13	=13	=13	=13	=13	=13
2BB-	.	0.r	.	2d	.	0.r	.
1E-i	.	.	.	2c	.	.	.
.	.	.	.	1B-	.	.	.
2D	.	.	.	.	.	.	.
2C	.	.	.	2e-i	.	.	.
2BB-	.	.	.	2d	.	.	.
=14	=14	=14	=14	=14	=14	=14	=14
2AA	.	0.r	.	2c	.	0.r	.
1D	.	.	.	2B-	.	.	.
.	.	.	.	1A	.	.	.
2C	.	.	.	.	.	.	.
2BB-	.	.	.	2d	.	.	.
2AA	.	.	.	2c	.	.	.
=15	=15	=15	=15	=15	=15	=15	=15
2GG	.	0.r	.	2B-	.	1r	.
1C	.	.	.	2A	.	.	.
.	.	.	.	2G	mi-	1r	.
2AA	mi-	.	.	1A	-ran-	.	.
1BB-	-ran-	.	.	.	.	1d	me-
.	.	.	.	2G	.	.	.
=16	=16	=16	=16	=16	=16	=16	=16
1AA	-te	0.r	.	2A	-te	2c	.
.	.	.	.	1c	me-	1e	.
1r	.	.	.	.	.	.	.
.	.	.	.	2d	.	2f	.
1C	me-	.	.	1e	.	1g	.
=17	=17	=17	=17	=17	=17	=17	=17
1.D	-los	0.r	.	2d	-los	2f	-los
.	.	.	.	1f	phon-	1a	phon-
2E	.	.	.	2e	-gi-	2g	-gi-
1F	.	.	.	2c	-ta-	2a	-ta-
.	.	.	.	2d	.	2f	.
=18	=18	=18	=18	=18	=18	=18	=18
2G	phon-	0.r	.	2e	.	2e	.
2D	-gi-	.	.	1f	.	1a	.
1F	-ta-	.	.	.	.	.	.
.	.	.	.	1d	.	2f	.
1E	.	.	.	.	.	2g	.
.	.	.	.	2c#i	.	2e	.
=19	=19	=19	=19	=19	=19	=19	=19
0.D	-tes	[0.D	Re	1d	-tes	1.f	.
.	.	.	.	1r	.	.	.
.	.	.	.	.	.	2g	.
.	.	.	.	1A	Mal-	1a	.
=20	=20	=20	=20	=20	=20	=20	=20
0.BB-	.	0.D]	.	1.B-	.	1d	-tes
.	.	.	.	.	.	1r	.
.	.	.	.	4A	.	.	.
.	.	.	.	4G	.	.	.
.	.	.	.	2.F	.	1r	.
.	.	.	.	4G	.	.	.
=21	=21	=21	=21	=21	=21	=21	=21
0.AA	.	0.C	ut	1.A	.	0.e	Mal-
.	.	.	.	2G	.	.	.
.	.	.	.	1E	.	.	.
=22	=22	=22	=22	=22	=22	=22	=22
1r	.	[0.D	re,	1D	.	1.f	.
1r	.	.	.	1A	.	.	.
.	.	.	.	.	.	2d	.
1BB-	Mal-	.	.	2F	.	[1d	-le-
.	.	.	.	[2B-	-le-	.	.
=23	=23	=23	=23	=23	=23	=23	=23
1.BB-	-le-	0.D]	.	4B-]	.	1d]	.
.	.	.	.	4A	.	.	.
.	.	.	.	2G	.	.	.
.	.	.	.	2F	.	1.d	-o-
2GG	-o-	.	.	2.G	-o-	.	.
2BB-	.	.	.	.	.	.	.
.	.	.	.	4F	.	.	.
2C	.	.	.	2E	.	2e	.
=24	=24	=24	=24	=24	=24	=24	=24
2D	.	0.r	.	2D	.	2f	.
2BB-	.	.	.	1B-	.	1g	.
2E-i	.	.	.	.	.	.	.
2F	.	.	.	2A	.	1f	.
1C	.	.	.	1G	.	.	.
.	.	.	.	.	.	2e	.
=25	=25	=25	=25	=25	=25	=25	=25
[0.D	-rum	[0.A	la	1.F	-rum	0f	-rum
.	.	.	.	2G	.	.	.
.	.	.	.	1A	.	1r	.
=26	=26	=26	=26	=26	=26	=26	=26
1D]	.	0.A]	.	0.D	.	1f	per-
1.F	per-	.	.	.	.	1.a	.
2E	.	.	.	.	.	2g	.
=27	=27	=27	=27	=27	=27	=27	=27
1C	-cus-	0.G	sol	1r	.	1e	-cus-
1.BB-	.	.	.	1r	.	1.d	.
.	.	.	.	1D	per	.	.
2AA	.	.	.	.	.	2c	.
=28	=28	=28	=28	=28	=28	=28	=28
1AA	-sa	[0.A	la,	1E	cus-	1c	-sa
1.D	.	.	.	1.F	.	1r	.
.	.	.	.	.	.	1d	ae-
2C	.	.	.	2E	.	.	.
=29	=29	=29	=29	=29	=29	=29	=29
1AA	.	0.A]	.	1E	-sa	2e	.
.	.	.	.	.	.	1e	-quo-
1r	.	.	.	2C	ae-	.	.
.	.	.	.	2D	.	2d	.
1AA	ae-	.	.	1E	.	2.c	.
.	.	.	.	.	.	4B	.
=30	=30	=30	=30	=30	=30	=30	=30
2D	-quo-	0.r	.	1F	-quo-	2A	.
1F	.	.	.	.	.	2.d	.
.	.	.	.	1D	.	.	.
.	.	.	.	.	.	4e	.
4E	.	.	.	.	.	2f	.
4D	.	.	.	.	.	.	.
2.C#i	.	.	.	1E	.	1g	-ra
4BBni	.	.	.	.	.	.	.
=31	=31	=31	=31	=31	=31	=31	=31
0D	-ra	[0.d	re	0.D	-ra	0f	Per
1F	.	.	.	.	.	[1a	.
=32	=32	=32	=32	=32	=32	=32	=32
1F	Per	0.d]	.	0.r	.	1a]	.
0G	.	.	.	.	.	0b	.
=33	=33	=33	=33	=33	=33	=33	=33
1.A	pon-	0.c	ut	1r	.	1.cc	pon-
.	.	.	.	1r	.	.	.
2G	.	.	.	.	.	2b	.
1E	-de-	.	.	1G	Per	1g	.
=34	=34	=34	=34	=34	=34	=34	=34
1D	-rum	[0.d	re.	1A	pon-	1.f	-de-
2r	.	.	.	1B-	.	.	.
1G	in-	.	.	.	.	2d	.
.	.	.	.	1A	-de-	1d	-rum
2F	.	.	.	.	.	.	.
=35	=35	=35	=35	=35	=35	=35	=35
2G	-ae-	0.d]	.	2G	-rum	2r	.
1D	.	.	.	2F	.	2d	in
.	.	.	.	1D	.	2.f	.
2BB-	.	.	.	.	.	.	.
.	.	.	.	.	.	4g	.
2C	.	.	.	2r	.	2a	.
2D	.	.	.	2F	in	[2d	ae-
=36	=36	=36	=36	=36	=36	=36	=36
2GG	-qua-	0.r	.	2G	.	2d]	.
2.D	.	.	.	2A	.	1A	.
.	.	.	.	1D	ae-	.	.
4C	.	.	.	.	.	.	.
2BB-	.	.	.	.	.	2d	.
1AA	-li-	.	.	1E	.	2c#i	.
.	.	.	.	.	.	2B	.
=37	=37	=37	=37	=37	=37	=37	=37
1.BB-	-ta-	[0.d	Re	0D	-qua-	1.d	-qua-
1.D	.	.	.	.	.	2.f	.
.	.	.	.	1F	.	.	.
.	.	.	.	.	.	4g	.
.	.	.	.	.	.	2a	.
=38	=38	=38	=38	=38	=38	=38	=38
1GG	-tes	0.d]	.	1G	.	1.b-i	.
1r	.	.	.	0D	.	.	.
.	.	.	.	.	.	2a	.
1r	.	.	.	.	.	2.f	.
.	.	.	.	.	.	4g	.
=39	=39	=39	=39	=39	=39	=39	=39
1r	.	0.c	ut	1A	.	2e	.
.	.	.	.	.	.	1a	.
1r	.	.	.	2F	-li-	.	.
.	.	.	.	2G	.	4g	-li-
.	.	.	.	.	.	4f	.
1AA	Ad-	.	.	1A	-ta-	1e	-ta-
=40	=40	=40	=40	=40	=40	=40	=40
1.BB-	.	[0.d	re,	1D	-tes	1d	-tes
.	.	.	.	1r	.	1r	.
4AA	-in-	.	.	.	.	.	.
4GG	.	.	.	.	.	.	.
2.FF#i	-ve-	.	.	1A	Ad-	1r	.
4EE	.	.	.	.	.	.	.
=41	=41	=41	=41	=41	=41	=41	=41
1GG	-nit,	0.d]	.	2G	.	1d	Ad-
.	.	.	.	2.B-	.	.	.
1r	.	.	.	.	.	1f	.
.	.	.	.	4A	.	.	.
.	.	.	.	2F	.	.	.
1GG	ad-	.	.	2.G	-in-	1b-	.
.	.	.	.	4F	.	.	.
=42	=42	=42	=42	=42	=42	=42	=42
1D	-in-	0.r	.	2D	.	2a	-in-
.	.	.	.	2.d	-ve-	1a	-ve-
1F	-ve-	.	.	.	.	.	.
.	.	.	.	4c	.	.	.
.	.	.	.	2A	.	2f	.
1E	.	.	.	2.B-	.	1g	.
.	.	.	.	4A	.	.	.
=43	=43	=43	=43	=43	=43	=43	=43
2F	.	[0.A	la	1A	.	0a	-nit,
0D	.	.	.	.	.	.	.
.	.	.	.	2F	.	.	.
.	.	.	.	2D	.	.	.
.	.	.	.	1E	.	1r	.
2C	.	.	.	.	.	.	.
=44	=44	=44	=44	=44	=44	=44	=44
2D	-nit	0.A]	.	1D	-nit	0a	mu-
2.F	mu-	.	.	.	.	.	.
.	.	.	.	1r	.	.	.
4E	.	.	.	.	.	.	.
2C	.	.	.	.	.	.	.
1D	.	.	.	1r	.	1f	.
=45	=45	=45	=45	=45	=45	=45	=45
2GG	.	0.G	sol	0.r	.	2.g	.
1C	.	.	.	.	.	.	.
.	.	.	.	.	.	4f	.
.	.	.	.	.	.	4e	.
.	.	.	.	.	.	4d	.
2D	.	.	.	.	.	1d	.
1E	.	.	.	.	.	.	.
.	.	.	.	.	.	2c#i	.
=46	=46	=46	=46	=46	=46	=46	=46
0D	-sae	[0.A	la,	1F	mu-	1d	-sae
.	.	.	.	1D	-sae	1f	qui-
1AA	.	.	.	1C	qui-	2e	.
.	.	.	.	.	.	2d	.
=47	=47	=47	=47	=47	=47	=47	=47
1r	.	0.A]	.	1D	-di-	1d	-di-
0AA	qui-	.	.	1.E	.	1c	.
.	.	.	.	.	.	2d	.
.	.	.	.	2D	.	2c	.
=48	=48	=48	=48	=48	=48	=48	=48
2BB-	-di-	0.r	.	1D	-ta-	0d	-ta-
2GG	.	.	.	.	.	.	.
1D	-ta-	.	.	1F	.	.	.
1E	.	.	.	1G	.	2.B	.
.	.	.	.	.	.	4A	.
=49	=49	=49	=49	=49	=49	=49	=49
0F	-tes.	[0.D	re	0.A	-tes.	1A	-tes.
.	.	.	.	.	.	1r	.
[1BB-	E-	.	.	.	.	1r	.
=50	=50	=50	=50	=50	=50	=50	=50
1BB-]	.	0.D]	.	1.B-	E-	0.r	.
1GG	-pi-	.	.	.	.	.	.
.	.	.	.	2c	.	.	.
1BB-	.	.	.	1d	-pi-	.	.
=51	=51	=51	=51	=51	=51	=51	=51
1C	-tri-	0.C	ut	1.G	-tri-	1r	.
1.AA	.	.	.	.	.	1r	.
.	.	.	.	4F	.	.	.
.	.	.	.	4E	.	.	.
.	.	.	.	2.F	.	1c	E-
2GG	.	.	.	.	.	.	.
.	.	.	.	4E	.	.	.
=52	=52	=52	=52	=52	=52	=52	=52
0GG	.	[0.D	re.	2G	.	1.B	-pi-
.	.	.	.	2.d	.	.	.
.	.	.	.	4c	.	.	.
.	.	.	.	2c	.	2.d	-tri-
1FF	.	.	.	1A	.	.	.
.	.	.	.	.	.	4c	.
.	.	.	.	.	.	2A	.
=53	=53	=53	=53	=53	=53	=53	=53
1.GG	.	0.D]	.	1G	-tum	1.B-i	.
.	.	.	.	1r	.	.	.
1BB-	.	.	.	.	.	2.G	.
.	.	.	.	1G	ac	.	.
.	.	.	.	.	.	4A	.
4AA	.	.	.	.	.	2B-i	.
4GG	.	.	.	.	.	.	.
=54	=54	=54	=54	=54	=54	=54	=54
1FF	-tum	0.r	.	1A	he-	2c	.
.	.	.	.	.	.	2A	.
1GG	ac	.	.	2G	-mi-	2B-i	.
.	.	.	.	1G	-o-	2.d	.
1AA	he-	.	.	.	.	.	.
.	.	.	.	.	.	4c	.
.	.	.	.	2F#i	-li-	2A	.
=55	=55	=55	=55	=55	=55	=55	=55
4GG	-mi-	0.r	.	1G	-am	2B-i	-tum
2BB-	-o-	.	.	.	.	.	.
.	.	.	.	.	.	2G	ac
4C	.	.	.	.	.	.	.
2AA	-li-	.	.	1r	.	2F	he-
2GG	-am,	.	.	.	.	4G	-mi-
.	.	.	.	.	.	2B-i	-o-
2r	.	.	.	1r	.	.	.
.	.	.	.	.	.	4c	.
2F	he-	.	.	.	.	2A	-li-
=56	=56	=56	=56	=56	=56	=56	=56
4G	-mi-	0.r	.	0.r	.	2G	-am,
2B-	-o-	.	.	.	.	.	.
.	.	.	.	.	.	2r	.
4c	.	.	.	.	.	.	.
2A	-li-	.	.	.	.	2f	he-
2.G	-am,	.	.	.	.	4g	-mi-
.	.	.	.	.	.	2b-i	-o-
4E	ac	.	.	.	.	4cc	.
2F	he-	.	.	.	.	2a	-li-
=57	=57	=57	=57	=57	=57	=57	=57
4G	-mi-	0.r	.	0.r	.	2.g	-am,
2E	-o-	.	.	.	.	.	.
4C	.	.	.	.	.	4e	ac
2D	-li-	.	.	.	.	2f	he-
2.C	-am,	.	.	.	.	4g	-mi-
.	.	.	.	.	.	2e	-o-
4AA	ac	.	.	.	.	4c	.
2BB-	he-	.	.	.	.	2d	-li-
=58	=58	=58	=58	=58	=58	=58	=58
4C	-mi-	0.r	.	0.r	.	2.c	-am,
2E	-o-	.	.	.	.	.	.
4F	.	.	.	.	.	4A	ac
2D	-li-	.	.	.	.	2B	he-
1C	-am,	.	.	.	.	4c	-mi-
.	.	.	.	.	.	2e	-o-
.	.	.	.	.	.	4f	.
2BB-	E-	.	.	.	.	2d	-li-
=59	=59	=59	=59	=59	=59	=59	=59
2C	-pog-	0.r	.	0.r	.	1c	-am,
2E	-do-	.	.	.	.	.	.
2D	-i	.	.	.	.	2B	E-
1G	et	.	.	.	.	2G	-pog-
.	.	.	.	.	.	1A	-do-
2F#i	.	.	.	.	.	.	.
=60	=60	=60	=60	=60	=60	=60	=60
1G	du-	0.r	.	1r	.	2G	-i
.	.	.	.	.	.	2B	et
2F	-plum	.	.	1r	.	2A	du-
2D	per-	.	.	.	.	2.d	-plum
1E	-du-	.	.	1G	E-	.	.
.	.	.	.	.	.	4c#i	per-
.	.	.	.	.	.	4c#i	-du-
.	.	.	.	.	.	4B	.
=61	=61	=61	=61	=61	=61	=61	=61
*	*	*M3/1	*	*	*	*	*
*	*	*met(C)	*	*	*	*	*
0D	-cunt	[0D	Re	1A	-pog-	1d	-cunt
!	!	!	!	!LO:N:vis=1.	!	!	!
.	.	.	.	[y1d	-do-	1r	.
=-	=-	=	=-	=-	=-	=-	=-
!	!	!LO:N:vis=0	!	!	!	!	!
[1F	.	1D_y	.	2d]yy	.	1r	.
.	.	.	.	2c	.	.	.
=62	=62	=62-	=62	=62	=62	=62	=62
!	!	!	!	!LP:N:vis=1.	!	!	!
1F]	.	1D]yy	.	[y1f	-i	1ryy	.
=-	=-	=	=-	=-	=-	=-	=-
0G	.	0C	ut	2f]yy	.	0r	.
.	.	.	.	2e	et	.	.
.	.	.	.	2e	du-	.	.
.	.	.	.	2d	.	.	.
=63	=63	=63	=63	=63	=63	=63	=63
1.F	Nam	[0D	re,	1.f	-plum	1.a	Nam
!LO:N:vis=1	!	!	!	!LO:N:vis=1.	!	!LO:N:vis=1	!
[y2B-	tes-	.	.	[y2d	.	[y2f	tes-
=-	=-	=	=-	=-	=-	=-	=-
!	!	!LO:N:vis=0	!	!	!	!	!
2B-]yy	.	1D_y	.	1d]yy	.	2f]yy	.
2A	.	.	.	.	.	2g	.
=64	=64	=64-	=64	=64	=64	=64	=64
!LO:N:vis=1.	!	!	!	!LO:N:vis=1.	!	!LO:N:vis=1.	!
[y1F	-sa-	1D]yy	.	[y1A	per-	[y1a	-sa-
=-	=-	=	=-	=-	=-	=-	=-
2F]yy	.	0r	.	2A]yy	.	2a]yy	.
1G	-ron	.	.	1B-	-du-	1d	-ron
2F	.	.	.	2A	.	2e	.
=65	=65	=65	=65	=65	=65	=65	=65
0D	.	[0A	la	0F	-cunt	0f	.
=-	=-	=	=-	=-	=-	=-	=-
!	!	!LO:N:vis=0	!	!	!	!	!
[1C	pen-	1A_y	.	1r	.	1e	pen-
=66	=66	=66-	=66	=66	=66	=66	=66
1C]	.	1A]yy	.	1r	.	1c	.
=-	=-	=	=-	=-	=-	=-	=-
0BB-	.	0G	sol	0D	Nam	1.d	.
.	.	.	.	.	.	2c	.
=67	=67	=67	=67	=67	=67	=67	=67
0AA	-te	[0A	la,	2.E	tes-	0c	-te
.	.	.	.	4F	.	.	.
.	.	.	.	2G	-sa-	.	.
!	!	!	!	!LO:N:vis=1	!	!	!
.	.	.	.	[y2A	-ron	.	.
=-	=-	=	=-	=-	=-	=-	=-
!	!	!LO:N:vis=0	!	!	!	!	!
1D	con-	1A_y	.	2A]yy	.	1f	con-
.	.	.	.	[2d	pen-	.	.
=68	=68	=68-	=68	=68	=68	=68	=68
1F	.	1A]yy	.	4d]	.	1a	.
.	.	.	.	4e	.	.	.
.	.	.	.	2f	.	.	.
=-	=-	=	=-	=-	=-	=-	=-
1.E	-cor-	0r	.	4g	.	2g	.
.	.	.	.	4f	.	.	.
.	.	.	.	4e	.	1g	-cor-
.	.	.	.	4d	.	.	.
.	.	.	.	2.c#i	.	.	.
2D	-di-	.	.	.	.	2e	.
.	.	.	.	4Bni	.	.	.
=69	=69	=69	=69	=69	=69	=69	=69
1D	-am	[0d	re	1d	-te	1f	.
1r	.	.	.	2B-	con-	1g	.
!	!	!	!	!LO:N:vis=1	!	!	!
.	.	.	.	[y2G	.	.	.
=-	=-	=	=-	=-	=-	=-	=-
!	!	!LO:N:vis=0	!	!	!	!	!
1r	.	1d_y	.	2G]y	.	1a	-di-
.	.	.	.	2F	.	.	.
=70	=70	=70-	=70	=70	=70	=70	=70
1r	.	1d]yy	.	2G	-cor-	1g	-am
.	.	.	.	2B-	.	.	.
=-	=-	=	=-	=-	=-	=-	=-
1r	.	0c	ut	2A	.	1r	.
.	.	.	.	4G	.	.	.
.	.	.	.	4F	.	.	.
1C	Nec	.	.	2.E	-di-	1g	Nec
.	.	.	.	4D	.	.	.
=71	=71	=71	=71	=71	=71	=71	=71
1F	non	[0d	re.	1D	-am	2f	non
.	.	.	.	.	.	2.d	.
1D	.	.	.	2r	.	.	.
.	.	.	.	.	.	4c	.
.	.	.	.	2F	Nec	2A	.
=-	=-	=	=-	=-	=-	=-	=-
!	!	!LO:N:vis=0	!	!	!	!	!
1BB-	.	1d_y	.	2.G	.	2B-i	.
.	.	.	.	.	.	[2G	.
.	.	.	.	4A	.	.	.
=72	=72	=72-	=72	=72	=72	=72	=72
2.GG	phton-	1d]yy	.	2B-	non	2G]	.
!	!	!	!	!	!	!LO:N:vis=2.	!
.	.	.	.	4A	.	[y2d	phton-
4AA	.	.	.	4G	.	.	.
=-	=-	=	=-	=-	=-	=-	=-
2BB-	.	0r	.	2F	.	4d]yy	.
.	.	.	.	.	.	4c	.
2GG	.	.	.	1G	phton-	2B-i	.
1D	.	.	.	.	.	1A	-gum
.	.	.	.	2F#i	.	.	.
=73	=73	=73	=73	=73	=73	=73	=73
0GG	-gum	[0d	Re	0G	-gum	2G	et
.	.	.	.	.	.	2.B-i	.
.	.	.	.	.	.	4c	.
!	!	!	!	!	!	!LO:N:vis=1	!
.	.	.	.	.	.	[y2d	.
=-	=-	=	=-	=-	=-	=-	=-
!	!	!LO:N:vis=0	!	!	!	!	!
[1G	et	1d_y	.	1r	.	2d]yy	.
.	.	.	.	.	.	[2g	pa-
=74	=74	=74-	=74	=74	=74	=74	=74
!	!	!	!	!LO:N:vis=0.	!	!	!
1G]	.	1d]yy	.	1r	.	4g]	.
.	.	.	.	.	.	4a	.
.	.	.	.	.	.	2b-i	.
=-	=-	=	=-	=-	=-	=-	=
0A	pa-	0c	ut	0ryy	.	4cc	.
.	.	.	.	.	.	4b-i	.
.	.	.	.	.	.	4a	.
.	.	.	.	.	.	4g	.
.	.	.	.	.	.	2.f#i	.
.	.	.	.	.	.	4e	.
=75	=75	=75	=75	=75	=75	=75	=75
1.G	-son	[0d	re,	1.B-	et	1g	-son
.	.	.	.	.	.	1r	.
2F	.	.	.	2A	.	.	.
=-	=-	=	=-	=-	=-	=-	=-
!	!	!LO:N:vis=0	!	!	!	!	!
1D	.	1d_y	.	1F	.	1r	.
=76	=76	=76-	=76	=76	=76	=76	=76
!LO:N:vis=1.	!	!	!	!	!	!	!
[y1F	ad-	1d]yy	.	2r	.	1a	ad-
!	!	!	!	!LO:N:vis=1	!	!	!
.	.	.	.	[y2A	pa-	.	.
=-	=-	=	=-	=-	=-	=-	=-
2F]yy	.	0r	.	2A]yy	.	2f	.
2E	.	.	.	2G	.	1g	-du-
1C	.	.	.	1E	.	.	.
.	.	.	.	.	.	2e	.
=77	=77	=77	=77	=77	=77	=77	=77
1.D	-du-	[0A	la	1.F	-son	1d	-cunt,
.	.	.	.	.	.	1r	.
2C	.	.	.	2E	.	.	.
=-	=-	=	=-	=-	=-	=-	=-
!	!	!LO:N:vis=0	!	!	!	!	!
1AA	.	1A_y	.	1C	.	1r	.
=78	=78	=78-	=78	=78	=78	=78	=78
!LO:N:vis=1.	!	!	!	!	!	!	!
[y1C	-cunt	1A]yy	.	2r	.	1e	ad-
!	!	!	!	!LO:N:vis=1	!	!	!
.	.	.	.	[y2E	ad-	.	.
=-	=-	=	=-	=-	=-	=-	=-
2C]yy	.	0G	sol	2E]yy	.	2c	.
2BB-	.	.	.	2D	-du-	1d	-du-
1GG	.	.	.	1BBn	-cunt	.	.
.	.	.	.	.	.	2B	.
=79	=79	=79	=79	=79	=79	=79	=79
1D	Mo-	[0A	la,	2r	.	1A	-cunt
.	.	.	.	1D	Mo-	.	.
1F	.	.	.	.	.	2r	.
!	!	!	!	!LO:N:vis=2.	!	!LO:N:vis=2.	!
.	.	.	.	[y2F	.	[y2a	Mo-
=-	=-	=	=-	=-	=-	=-	=-
!	!	!LO:N:vis=0	!	!	!	!	!
1D	-no-	1A_y	.	4F]yy	.	4a]yy	.
.	.	.	.	4E	.	4g	.
.	.	.	.	[2D	.	4f	.
.	.	.	.	.	.	4e	.
=80	=80	=80-	=80	=80	=80	=80	=80
2r	.	1A]yy	.	2D]	.	2f	-no-
!	!	!	!	!	!	!LO:N:vis=2.	!
2AA	-cor-	.	.	2C	-no-	2e	-cor-
=-	=-	=	=-	=-	=-	=-	=-
1BB-	-di-	0r	.	1D	-cor-	4e	.
.	.	.	.	.	.	4d	.
.	.	.	.	.	.	2.d	.
1AA	-dum	.	.	1E	.	.	.
.	.	.	.	.	.	4B	.
.	.	.	.	.	.	2c#i	.
=81	=81	=81	=81	=81	=81	=81	=81
2r	.	[0D	re	0D	-di	2d	-di
2BB-	ge-	.	.	.	.	2.d	dum
1GG	.	.	.	.	.	.	.
.	.	.	.	.	.	4c	.
.	.	.	.	.	.	4B	.
.	.	.	.	.	.	4A	.
=-	=-	=	=-	=-	=-	=-	=-
!	!	!LO:N:vis=0	!	!	!	!	!
1FF	-nus	1D_y	.	1F	dum	2A	.
.	.	.	.	.	.	[2A	ge-
=82	=82	=82-	=82	=82	=82	=82	=82
1BB-	con-	1D]yy	.	1D	ge-	4A]	.
.	.	.	.	.	.	4G	.
.	.	.	.	.	.	4G	.
.	.	.	.	.	.	4F	.
=-	=-	=	=-	=-	=-	=-	=-
0AA	-du-	0C	ut	0E	-nus	2A	-nus
.	.	.	.	.	.	2.c	con-
.	.	.	.	.	.	4d	.
.	.	.	.	.	.	2e	.
=83	=83	=83	=83	=83	=83	=83	=83
[0.Dl	-cunt.	[0.Dl	re.	2D	con-	1.f	-du-
.	.	.	.	2.d	-du-	.	.
.	.	.	.	4c	.	.	.
.	.	.	.	4B-	.	2d	.
.	.	.	.	4A	.	.	.
.	.	.	.	2.B-	.	[1dl	-cunt.
.	.	.	.	4A	.	.	.
=84	=84	=84	=84	=84	=84	=84	=84
0.D]	.	0.D]	.	0.Al	-cunt.	0.d]	.
!!LO:LB:i:g=z
=85||	=85||	=85||	=85||	=85||	=85||	=85||	=85||
*>B	*>B	*>B	*>B	*>B	*>B	*>B	*>B
*clefF4	*	*clefGv2	*	*clefGv2	*	*clefG2	*
*k[b-]	*	*k[]	*	*k[b-]	*	*k[b-]	*
*M2/1	*	*M2/1	*	*M2/1	*	*M2/1	*
*met(C|)	*	*met(C|)	*	*met(C|)	*	*met(C|)	*
!!section: Haec Okeghem
!!!OMD: Haec Okeghem
0G	Haec	0r	.	0r	.	0r	.
=86	=86	=86	=86	=86	=86	=86	=86
1B-	O-	0r	.	0r	.	0r	.
[1A	.	.	.	.	.	.	.
=87	=87	=87	=87	=87	=87	=87	=87
2A]	.	0r	.	0r	.	0r	.
2G	.	.	.	.	.	.	.
1F	-cke-	.	.	.	.	.	.
=88	=88	=88	=88	=88	=88	=88	=88
0E	-ghem,	0r	.	0r	.	0g	Haec
=89	=89	=89	=89	=89	=89	=89	=89
[0D	O-	0r	.	0r	.	1b-	O-
.	.	.	.	.	.	[1a	.
=90	=90	=90	=90	=90	=90	=90	=90
0D]	.	0r	.	0r	.	2a]	.
.	.	.	.	.	.	2g	.
.	.	.	.	.	.	1f	-cke-
=91	=91	=91	=91	=91	=91	=91	=91
0C	-cke-	0r	.	0G	Haec	0e	-ghem,
=92	=92	=92	=92	=92	=92	=92	=92
0D	-ghem	0r	.	1B-	O-	1d	O-
.	.	.	.	[1A	.	1f	.
=93	=93	=93	=93	=93	=93	=93	=93
0r	.	0r	.	2A]	.	1e	.
.	.	.	.	2G	.	.	.
.	.	.	.	1F	-cke-	[1a	.
=94	=94	=94	=94	=94	=94	=94	=94
0r	.	0r	.	0E	-ghem,	1a]	.
.	.	.	.	.	.	1g	.
=95	=95	=95	=95	=95	=95	=95	=95
0r	.	0r	.	1D	O-	1f	-cke-
.	.	.	.	1F	.	1d	.
=96	=96	=96	=96	=96	=96	=96	=96
0r	.	0r	.	1E	.	0c	-ghem
.	.	.	.	[1A	.	.	.
=97	=97	=97	=97	=97	=97	=97	=97
0r	.	0r	.	1A]	.	0r	.
.	.	.	.	1G	.	.	.
=98	=98	=98	=98	=98	=98	=98	=98
0r	.	0r	.	1F	-cke-	0d	qui
.	.	.	.	1D	.	.	.
=99	=99	=99	=99	=99	=99	=99	=99
0r	.	0r	.	0C	-ghem	0e	cunc-
=100	=100	=100	=100	=100	=100	=100	=100
0r	.	0r	.	0r	.	1d	.
.	.	.	.	.	.	[1f	-tis
=101	=101	=101	=101	=101	=101	=101	=101
0r	.	0r	.	0D	qui	2f]	.
.	.	.	.	.	.	2e	.
.	.	.	.	.	.	[1d	prae-
=102	=102	=102	=102	=102	=102	=102	=102
0r	.	0r	.	0E	cunc-	1d]	.
.	.	.	.	.	.	1c#i	-ci-
=103	=103	=103	=103	=103	=103	=103	=103
0r	.	0r	.	1D	.	1.d	-nis
.	.	.	.	[1F	-tis	.	.
.	.	.	.	.	.	[2a	Gal-
=104	=104	=104	=104	=104	=104	=104	=104
0r	.	0r	.	2F]	.	2a]	.
.	.	.	.	2E	.	4g	-li-
.	.	.	.	.	.	4a	.
.	.	.	.	[1D	prae-	2b-	-a-
.	.	.	.	.	.	[2a	.
=105	=105	=105	=105	=105	=105	=105	=105
0r	.	0r	.	1D]	.	4a]	.
.	.	.	.	.	.	4g	.
.	.	.	.	.	.	2f	.
.	.	.	.	1C#i	-ci-	2.e	.
.	.	.	.	.	.	4d	.
=106	=106	=106	=106	=106	=106	=106	=106
0r	.	0r	.	1.D	-nis	1d	.
.	.	.	.	.	.	1f	.
.	.	.	.	[2A	Gal-	.	.
=107	=107	=107	=107	=107	=107	=107	=107
0r	.	0r	.	2A]	.	1e	.
.	.	.	.	4G	-li-	.	.
.	.	.	.	4A	.	.	.
.	.	.	.	2B-	-a-	2d	.
.	.	.	.	[2A	.	2c	.
=108	=108	=108	=108	=108	=108	=108	=108
0r	.	0r	.	4A]	.	2A	.
.	.	.	.	4G	.	.	.
.	.	.	.	2F	.	1d	.
.	.	.	.	2.E	.	.	.
.	.	.	.	.	.	2c#i	.
.	.	.	.	4D	.	.	.
=109	=109	=109	=109	=109	=109	=109	=109
0r	.	0r	.	1D	-rum	0d	-rum
.	.	.	.	1r	.	.	.
=110	=110	=110	=110	=110	=110	=110	=110
0r	.	0r	.	1F	in	0r	.
.	.	.	.	2G	re-	.	.
.	.	.	.	[2A	.	.	.
=111	=111	=111	=111	=111	=111	=111	=111
0r	.	0r	.	2A]	.	1f	in
.	.	.	.	2D	.	.	.
.	.	.	.	2E	.	2g	re-
.	.	.	.	2F	.	[2a	.
=112	=112	=112	=112	=112	=112	=112	=112
0r	.	0r	.	1D	-gis	2a]	.
.	.	.	.	.	.	2d	.
.	.	.	.	1r	.	2e	.
.	.	.	.	.	.	2f	.
=113	=113	=113	=113	=113	=113	=113	=113
0r	.	0r	.	1G	au-	1d	-gis
.	.	.	.	2F	.	1r	.
.	.	.	.	2D	.	.	.
=114	=114	=114	=114	=114	=114	=114	=114
0r	.	0r	.	1E	.	1g	au-
.	.	.	.	2D	.	2f	.
.	.	.	.	[2G	.	2d	.
=115	=115	=115	=115	=115	=115	=115	=115
0r	.	0r	.	2G]	.	1e	.
.	.	.	.	2A	.	.	.
.	.	.	.	1B-	.	2d	.
.	.	.	.	.	.	[2g	.
=116	=116	=116	=116	=116	=116	=116	=116
0r	.	0r	.	2.c	.	2g]	.
.	.	.	.	.	.	2a	.
.	.	.	.	4B-	.	.	.
.	.	.	.	1G	-la	1b-	.
=117	=117	=117	=117	=117	=117	=117	=117
0r	.	0r	.	2r	.	2.cc	.
.	.	.	.	2F	Prac-	.	.
.	.	.	.	.	.	4b-	.
.	.	.	.	2G	-ti-	1g	-la
.	.	.	.	2E	.	.	.
=118	=118	=118	=118	=118	=118	=118	=118
0r	.	0r	.	2F	.	2r	.
.	.	.	.	2D	-cu-	2f	Prac-
.	.	.	.	1C	-lum	2g	-ti-
.	.	.	.	.	.	2e	.
=119	=119	=119	=119	=119	=119	=119	=119
0r	.	0r	.	1D	.	2f	.
.	.	.	.	.	.	2d	-cu-
.	.	.	.	1E	tu-	1c	-lum
=120	=120	=120	=120	=120	=120	=120	=120
0r	.	0r	.	2D	-ae	1d	tu-
.	.	.	.	1d	pro-	.	.
.	.	.	.	.	.	1e	.
.	.	.	.	2c	.	.	.
=121	=121	=121	=121	=121	=121	=121	=121
0r	.	0r	.	2d	-pa-	1d	-ae
.	.	.	.	2f	.	.	.
.	.	.	.	2e	.	2.c	pro-
.	.	.	.	[2A	.	.	.
.	.	.	.	.	.	4d	.
=122	=122	=122	=122	=122	=122	=122	=122
0r	.	0r	.	4A]	.	2e	-pa-
.	.	.	.	4G	.	.	.
.	.	.	.	2F	.	2A	.
.	.	.	.	2E	.	2Bni	.
.	.	.	.	[2e	.	2c	.
=123	=123	=123	=123	=123	=123	=123	=123
0r	.	0r	.	4e]	.	2A	.
.	.	.	.	4d	.	.	.
.	.	.	.	2c	-gi-	1a	.
.	.	.	.	1Bn	-nis,	.	.
.	.	.	.	.	.	2g	.
=124	=124	=124	=124	=124	=124	=124	=124
0r	.	0r	.	2r	.	2a	.
.	.	.	.	1e	prac-	2cc	.
.	.	.	.	.	.	2bni	.
.	.	.	.	2c	.	[2a	.
=125	=125	=125	=125	=125	=125	=125	=125
0r	.	0r	.	2d	.	2a]	.
.	.	.	.	2e	.	2g	.
.	.	.	.	1A	.	2a	.
.	.	.	.	.	.	[2f	.
=126	=126	=126	=126	=126	=126	=126	=126
0r	.	0r	.	2F	.	4f]	.
.	.	.	.	.	.	4e	.
.	.	.	.	2G	.	2d	.
.	.	.	.	2A	.	2c	.
.	.	.	.	[2D	.	2d	.
=127	=127	=127	=127	=127	=127	=127	=127
0r	.	0r	.	2D]	.	2f	.
.	.	.	.	2C	.	1e	.
.	.	.	.	2D	-ti-	.	.
.	.	.	.	2F	-cu-	[2d	.
=128	=128	=128	=128	=128	=128	=128	=128
0r	.	0r	.	1E	-lum	2d]	.
.	.	.	.	.	.	2c	.
.	.	.	.	2r	.	2d	.
.	.	.	.	2G	pro-	2Bni	-gi-
=129	=129	=129	=129	=129	=129	=129	=129
0r	.	0r	.	2A	-pa-	1A	-nis,
.	.	.	.	2c	-gi-	.	.
.	.	.	.	1B-	-nis,	2r	.
.	.	.	.	.	.	2d	pro-
=130	=130	=130	=130	=130	=130	=130	=130
0r	.	0r	.	2r	.	2e	.
.	.	.	.	2c	prac-	2g	.
.	.	.	.	2d	.	2f	-pa-
.	.	.	.	2f	.	4e	.
.	.	.	.	.	.	4d	.
=131	=131	=131	=131	=131	=131	=131	=131
0r	.	0r	.	2e	-ti-	2c	.
.	.	.	.	2c	.	2A	.
.	.	.	.	2d	.	2Bni	.
.	.	.	.	2f	.	[2d	.
=132	=132	=132	=132	=132	=132	=132	=132
0r	.	0r	.	1e	-cu-	2d]	.
.	.	.	.	.	.	2c	.
.	.	.	.	1d	-lum	2d	.
.	.	.	.	.	.	2f	.
=133	=133	=133	=133	=133	=133	=133	=133
0r	.	0r	.	2r	.	2e	.
.	.	.	.	1D	pro-	2.a	.
.	.	.	.	.	.	4g	.
.	.	.	.	2C	.	2e	.
=134	=134	=134	=134	=134	=134	=134	=134
0r	.	0r	.	2D	-pa-	2f	.
.	.	.	.	2F	.	2d	.
.	.	.	.	2E	.	2e	.
.	.	.	.	2C	.	2g	.
=135	=135	=135	=135	=135	=135	=135	=135
1r	.	0r	.	2D	.	2f	.
.	.	.	.	2F	.	1d	.
1AA	Ar-	.	.	1E	-gi-	.	.
.	.	.	.	.	.	2c#i	-gi-
=136	=136	=136	=136	=136	=136	=136	=136
2.BB-	.	0r	.	1D	-nis	0d	-nis
4C	.	.	.	.	.	.	.
2D	.	.	.	1r	.	.	.
[2D	-ma	.	.	.	.	.	.
=137	=137	=137	=137	=137	=137	=137	=137
4D]	.	0r	.	1A	Ar-	0r	.
4C	.	.	.	.	.	.	.
2AA	.	.	.	.	.	.	.
2GG	.	.	.	2.B-	.	.	.
[2G	cer-	.	.	.	.	.	.
.	.	.	.	4c	.	.	.
=138	=138	=138	=138	=138	=138	=138	=138
1.G]	.	0r	.	2d	.	0r	.
.	.	.	.	2.d	-ma	.	.
.	.	.	.	4c	.	.	.
2F	.	.	.	2A	.	.	.
=139	=139	=139	=139	=139	=139	=139	=139
1G	.	0r	.	2B-	cer-	0r	.
.	.	.	.	[1.G	.	.	.
1B-	.	.	.	.	.	.	.
=140	=140	=140	=140	=140	=140	=140	=140
1A	-nens	0r	.	2G]	.	0r	.
.	.	.	.	2F#i	.	.	.
2r	.	.	.	1G	.	.	.
[2G	quon-	.	.	.	.	.	.
=141	=141	=141	=141	=141	=141	=141	=141
4G]	.	0r	.	1B-	.	0r	.
8FL	.	.	.	.	.	.	.
8EJ	.	.	.	.	.	.	.
4D	.	.	.	.	.	.	.
4E	.	.	.	.	.	.	.
2F	.	.	.	1A	-nens	.	.
4G	.	.	.	.	.	.	.
4A	.	.	.	.	.	.	.
=142	=142	=142	=142	=142	=142	=142	=142
1.B-	.	0r	.	2r	.	0r	.
.	.	.	.	2.G	quon-	.	.
.	.	.	.	4F	.	.	.
[2A	.	.	.	4D	.	.	.
.	.	.	.	4E	.	.	.
=143	=143	=143	=143	=143	=143	=143	=143
1A]	.	0r	.	2F	.	0r	.
.	.	.	.	4G	.	.	.
.	.	.	.	4A	.	.	.
2G	.	.	.	[1B-	.	.	.
2D	.	.	.	.	.	.	.
=144	=144	=144	=144	=144	=144	=144	=144
1G	.	0r	.	2B-]	.	0r	.
.	.	.	.	1.A	.	.	.
1F	.	.	.	.	.	.	.
=145	=145	=145	=145	=145	=145	=145	=145
2G	.	0r	.	2G	-dam	1.b-	Quon-
2GG	.	.	.	2D	per	.	.
2BB-	.	.	.	1G	a-	.	.
2C	.	.	.	.	.	[2a	.
=146	=146	=146	=146	=146	=146	=146	=146
1D	.	0r	.	1F	.	1a]	.
1GG	-dam	.	.	[1G	.	2g	-dam
.	.	.	.	.	.	2d	per
=147	=147	=147	=147	=147	=147	=147	=147
0r	.	0r	.	2G]	.	1g	a-
.	.	.	.	1.A	.	.	.
.	.	.	.	.	.	1f	.
=148	=148	=148	=148	=148	=148	=148	=148
0r	.	0r	.	2.G	.	1.g	.
.	.	.	.	4F	.	.	.
.	.	.	.	2E	.	.	.
.	.	.	.	2D	.	[2a	.
=149	=149	=149	=149	=149	=149	=149	=149
0r	.	0r	.	1F	.	1a]	.
.	.	.	.	2G	.	2.g	.
.	.	.	.	[2c	.	.	.
.	.	.	.	.	.	4f	.
=150	=150	=150	=150	=150	=150	=150	=150
1r	.	0r	.	2c]	.	2e	.
.	.	.	.	2B-	.	2d	.
1D	per-	.	.	1A	.	1f	.
=151	=151	=151	=151	=151	=151	=151	=151
2E	-a-	0r	.	1.G	.	2g	.
1C	.	.	.	.	.	2.e	.
.	.	.	.	.	.	4d	.
[2D	.	.	.	2F	.	[2f	.
=152	=152	=152	=152	=152	=152	=152	=152
2D]	.	0r	.	1D	-tri-	4f]	.
.	.	.	.	.	.	4g	.
2BB-	-tri-	.	.	.	.	4f	.
.	.	.	.	.	.	8eL	.
.	.	.	.	.	.	8dJ	.
1AA	-a	.	.	1E	-a	2.c#i	-tri-
.	.	.	.	.	.	4Bni	.
=153	=153	=153	=153	=153	=153	=153	=153
1.BB-	Bur-	[0D	Re	1r	.	[0d	-a
.	.	.	.	2.D	Bur-	.	.
4AA	.	.	.	.	.	.	.
4GG	.	.	.	4E	.	.	.
=154	=154	=154	=154	=154	=154	=154	=154
2FF	.	0D]	.	2F	.	0d]	.
2.BB-	-gun-	.	.	2.G	-gun-	.	.
4C	.	.	.	4A	.	.	.
2D	.	.	.	2B-	.	.	.
=155	=155	=155	=155	=155	=155	=155	=155
4E-i	-di-	0C	ut	4c	-di-	0r	.
4D	.	.	.	4B-	.	.	.
4C	.	.	.	4A	.	.	.
4BB-	.	.	.	4G	.	.	.
2.AA	.	.	.	2.F#i	.	.	.
4GG	.	.	.	4E	.	.	.
=156	=156	=156	=156	=156	=156	=156	=156
0GG	-ae	[0D	re,	1G	-ae	0d	Bur-
.	.	.	.	[1B-	.	.	.
=157	=157	=157	=157	=157	=157	=157	=157
[0BB-	du-	0D]	.	2B-]	.	[0d	-gun-
.	.	.	.	2A	.	.	.
.	.	.	.	1F	du-	.	.
=158	=158	=158	=158	=158	=158	=158	=158
1BB-]	.	0r	.	1.G	.	1d]	.
1C	.	.	.	.	.	1e	-di-
.	.	.	.	2F	.	.	.
=159	=159	=159	=159	=159	=159	=159	=159
0D	-cis	[0A	la	0F	-cis	1f	-ae
.	.	.	.	.	.	1d	.
=160	=160	=160	=160	=160	=160	=160	=160
1C	.	0A]	.	1E	.	1e	du-
1AA	.	.	.	[1E	in	1c	.
=161	=161	=161	=161	=161	=161	=161	=161
0BB-	.	0G	sol	1E]	.	1d	-cis
.	.	.	.	1D	.	1B-	.
=162	=162	=162	=162	=162	=162	=162	=162
1AA	in	[0A	la,	1E	pa-	1c	in
[1D	pa-	.	.	1F	.	2A	.
.	.	.	.	.	.	[2d	pa-
=163	=163	=163	=163	=163	=163	=163	=163
1D]	.	0A]	.	0D	.	4d]	.
.	.	.	.	.	.	4e	.
.	.	.	.	.	.	4f	.
.	.	.	.	.	.	4g	.
1F	.	.	.	.	.	2a	.
.	.	.	.	.	.	2d	.
=164	=164	=164	=164	=164	=164	=164	=164
0E	-tri-	0r	.	0G	-tri-	2e	.
.	.	.	.	.	.	1c#i	.
.	.	.	.	.	.	2Bni	-tri-
=165	=165	=165	=165	=165	=165	=165	=165
0D	-a	[0d	re	1.A	-a,	1d	-a
.	.	.	.	.	.	[1f	.
.	.	.	.	[2B-	.	.	.
=166	=166	=166	=166	=166	=166	=166	=166
0r	.	0d]	.	2B-]	.	2f]	.
.	.	.	.	4A	.	2g	.
.	.	.	.	4G	.	.	.
.	.	.	.	2F	.	[1a	.
.	.	.	.	2D	.	.	.
=167	=167	=167	=167	=167	=167	=167	=167
1r	.	0c	ut	2F	.	2a]	.
.	.	.	.	2G	.	2g	.
1AA	Bur-	.	.	1A	.	1e	.
=168	=168	=168	=168	=168	=168	=168	=168
2.BB-	.	[0d	re.	2.D	Bur-	2r	.
.	.	.	.	.	.	1f	Bur-
4C	.	.	.	4E	.	.	.
2D	.	.	.	2F	.	.	.
[2GG	-gun-	.	.	[2G	-gun-	2d	-gun-
=169	=169	=169	=169	=169	=169	=169	=169
2GG]	.	0d]	.	4G]	.	2g	-di-
.	.	.	.	4A	.	.	.
2D	.	.	.	2.B-	.	2f	.
2E	.	.	.	.	.	2b-	.
.	.	.	.	4c	.	.	.
2F	.	.	.	[2d	.	[2a	.
=170	=170	=170	=170	=170	=170	=170	=170
1G	.	0r	.	4d]	.	4a]	.
.	.	.	.	4G	.	4g	.
.	.	.	.	2B-	.	1g	.
1D	-di-	.	.	1A	-di-	.	.
.	.	.	.	.	.	2f#i	.
=171	=171	=171	=171	=171	=171	=171	=171
2GG	-ae	[0d	Re	1G	-ae	2g	-ae
2.BB-	du-	.	.	.	.	2.d	du-
.	.	.	.	1B-	.	.	.
4C	.	.	.	.	.	4e	.
[2D	.	.	.	.	.	[2f	.
=172	=172	=172	=172	=172	=172	=172	=172
4D]	.	0d]	.	1A	.	4f]	.
4E	.	.	.	.	.	4g	.
2F	.	.	.	.	.	2a	.
2G	.	.	.	1G	.	2b-	.
4A	.	.	.	.	.	4a	.
4B-	.	.	.	.	.	4g	.
=173	=173	=173	=173	=173	=173	=173	=173
4c	.	0c	ut	1r	.	4a	.
4B-	.	.	.	.	.	4g	.
4A	.	.	.	.	.	4f#i	.
4G	.	.	.	.	.	4e	.
1A	.	.	.	1c	du-	2.f#i	.
.	.	.	.	.	.	4e	.
=174	=174	=174	=174	=174	=174	=174	=174
1G	-cis	[0d	re,	1B-	.	1g	.
1F	in	.	.	1A	.	1a	.
=175	=175	=175	=175	=175	=175	=175	=175
1.G	pa-	0d]	.	2G	.	1.b-	.
.	.	.	.	2.B-	.	.	.
.	.	.	.	4c	.	.	.
2D	.	.	.	[2d	.	[2a	.
=176	=176	=176	=176	=176	=176	=176	=176
1F	.	0r	.	4d]	.	2a]	.
.	.	.	.	4c	.	.	.
.	.	.	.	2A	.	2f	.
1E	.	.	.	2B-	.	1g	.
.	.	.	.	4A	.	.	.
.	.	.	.	4G	.	.	.
=177	=177	=177	=177	=177	=177	=177	=177
1D	.	[0A	la	2F	.	[0a	-cis
.	.	.	.	2.A	.	.	.
1C	.	.	.	.	.	.	.
.	.	.	.	4G	.	.	.
.	.	.	.	4F	.	.	.
.	.	.	.	4E	.	.	.
=178	=178	=178	=178	=178	=178	=178	=178
0D	.	0A]	.	2D	-cis	0a]	.
.	.	.	.	2.d	in	.	.
.	.	.	.	4e	.	.	.
.	.	.	.	2f	.	.	.
=179	=179	=179	=179	=179	=179	=179	=179
0E	-tri-	0G	sol	2e	pa-	0r	.
.	.	.	.	1c#i	.	.	.
.	.	.	.	2Bni	-tri-	.	.
=180	=180	=180	=180	=180	=180	=180	=180
0D	-a,	[0A	la,	1d	-a,	0f	in
.	.	.	.	[1A	.	.	.
=181	=181	=181	=181	=181	=181	=181	=181
1C	pa-	0A]	.	2A]	.	1e	pa-
.	.	.	.	2G	.	.	.
1D	.	.	.	1F	.	[1d	.
=182	=182	=182	=182	=182	=182	=182	=182
0AA	.	0r	.	1.E	.	1d]	.
.	.	.	.	.	.	1c#i	.
.	.	.	.	2D	.	.	.
=183	=183	=183	=183	=183	=183	=183	=183
0A	.	[0D	re	1D	du-	1.d	.
.	.	.	.	[1A	.	.	.
.	.	.	.	.	.	[2f	.
=184	=184	=184	=184	=184	=184	=184	=184
0F	.	0D]	.	1A]	.	4f]	.
.	.	.	.	.	.	4g	.
.	.	.	.	.	.	2a	.
.	.	.	.	1F	.	2d	.
.	.	.	.	.	.	[2f	.
=185	=185	=185	=185	=185	=185	=185	=185
0G	-tri-	0C	ut	0c	-cis	2f]	.
.	.	.	.	.	.	4e	.
.	.	.	.	.	.	4d	.
.	.	.	.	.	.	4e	.
.	.	.	.	.	.	4d	.
.	.	.	.	.	.	4c	.
.	.	.	.	.	.	4Bni	.
=186	=186	=186	=186	=186	=186	=186	=186
0F	-a,	[0D	re.	1r	.	1A	.
.	.	.	.	[1F	in	[1d	.
=187	=187	=187	=187	=187	=187	=187	=187
1r	.	0D]	.	1F]	.	2d]	.
.	.	.	.	.	.	2c	.
1F	pa-	.	.	1A	pa-	[1f	.
=188	=188	=188	=188	=188	=188	=188	=188
0C	.	0r	.	0G	-tri-	2f]	.
.	.	.	.	.	.	2e	.
.	.	.	.	.	.	2e	-tri-
.	.	.	.	.	.	2d	.
=189	=189	=189	=189	=189	=189	=189	=189
1D	.	0r	.	[0F	-a	0f	-a
[1BB-	.	.	.	.	.	.	.
=190	=190	=190	=190	=190	=190	=190	=190
2BB-]	.	0r	.	0F]	.	0r	.
2C	.	.	.	.	.	.	.
1D	-tri-	.	.	.	.	.	.
=191	=191	=191	=191	=191	=191	=191	=191
0GG	-a	0r	.	0r	.	0b-	Per
=192	=192	=192	=192	=192	=192	=192	=192
0FF	.	0r	.	0r	.	1a	.
.	.	.	.	.	.	[1a	me
=193	=193	=193	=193	=193	=193	=193	=193
0r	.	0r	.	0B-	Per	1a]	.
.	.	.	.	.	.	1g	Bus-
=194	=194	=194	=194	=194	=194	=194	=194
0r	.	0r	.	1A	.	1.a	-noys
.	.	.	.	[1A	me	.	.
.	.	.	.	.	.	4g	.
.	.	.	.	.	.	4f	.
=195	=195	=195	=195	=195	=195	=195	=195
0r	.	0r	.	1A]	.	0e	.
.	.	.	.	1G	Bus-	.	.
=196	=196	=196	=196	=196	=196	=196	=196
0r	.	0r	.	1.A	-noys	1r	.
.	.	.	.	.	.	1f	il-
.	.	.	.	4G	.	.	.
.	.	.	.	4F	.	.	.
=197	=197	=197	=197	=197	=197	=197	=197
0r	.	0r	.	0E	.	0g	-lu-
=198	=198	=198	=198	=198	=198	=198	=198
0r	.	0r	.	1r	.	1f	.
.	.	.	.	1F	il-	[1d	.
=199	=199	=199	=199	=199	=199	=199	=199
0r	.	0r	.	0G	-lu-	2d]	.
.	.	.	.	.	.	2c	.
.	.	.	.	.	.	1B-	.
=200	=200	=200	=200	=200	=200	=200	=200
0r	.	0r	.	1F	.	0A	-stris
.	.	.	.	[1D	.	.	.
=201	=201	=201	=201	=201	=201	=201	=201
0r	.	0r	.	2D]	.	1r	.
.	.	.	.	2C	.	.	.
.	.	.	.	1BB-	.	1d	co-
=202	=202	=202	=202	=202	=202	=202	=202
0r	.	0r	.	0AA	-stris	1c	-mi-
.	.	.	.	.	.	1f	.
=203	=203	=203	=203	=203	=203	=203	=203
0r	.	0r	.	1r	.	1e	.
.	.	.	.	1D	co-	[1a	-tis
=204	=204	=204	=204	=204	=204	=204	=204
0r	.	0r	.	1C	-mi-	1a]	.
.	.	.	.	1F	.	1d	de
=205	=205	=205	=205	=205	=205	=205	=205
0r	.	0r	.	1E	.	1g	Cha-
.	.	.	.	[1A	-tis	1e	-ro-
=206	=206	=206	=206	=206	=206	=206	=206
0r	.	0r	.	1A]	.	1.f	-lois
.	.	.	.	1D	de	.	.
.	.	.	.	.	.	2e	.
=207	=207	=207	=207	=207	=207	=207	=207
0r	.	0r	.	1G	Cha-	1d	.
.	.	.	.	1E	-ro-	[1c	.
=208	=208	=208	=208	=208	=208	=208	=208
0r	.	0r	.	1.F	-lois	1c]	.
.	.	.	.	.	.	1d	in-
.	.	.	.	2E	.	.	.
=209	=209	=209	=209	=209	=209	=209	=209
0r	.	0r	.	1D	.	1f	.
.	.	.	.	[1C	.	1e	-di-
=210	=210	=210	=210	=210	=210	=210	=210
0r	.	0r	.	1C]	.	1g	.
.	.	.	.	1D	in-	1f	-gnum
=211	=211	=211	=211	=211	=211	=211	=211
0r	.	0r	.	1F	.	1a	.
.	.	.	.	1E	-di-	1g	mu-
=212	=212	=212	=212	=212	=212	=212	=212
0r	.	0r	.	1G	.	1e	.
.	.	.	.	1F	-gnum	[1f	.
=213	=213	=213	=213	=213	=213	=213	=213
0r	.	0r	.	1A	.	1f]	.
.	.	.	.	1G	mu-	[1g	.
=214	=214	=214	=214	=214	=214	=214	=214
0r	.	0r	.	0E	-si-	1g]	.
.	.	.	.	.	.	1c	-si-
=215	=215	=215	=215	=215	=215	=215	=215
0r	.	0r	.	0F	-cum	0d	-cum,
=216	=216	=216	=216	=216	=216	=216	=216
0r	.	0r	.	0E	.	[0e	mu-
=217	=217	=217	=217	=217	=217	=217	=217
0C	mu-	0r	.	0r	.	0e]	.
=218	=218	=218	=218	=218	=218	=218	=218
2D	.	0r	.	0r	.	[0A	.
2.F	.	.	.	.	.	.	.
4E	.	.	.	.	.	.	.
2D	.	.	.	.	.	.	.
=219	=219	=219	=219	=219	=219	=219	=219
2C	.	0r	.	0r	.	0A]	.
2.D	.	.	.	.	.	.	.
4C	.	.	.	.	.	.	.
2AA	.	.	.	.	.	.	.
=220	=220	=220	=220	=220	=220	=220	=220
2GG	.	0r	.	0r	.	[0Bni	.
1G	.	.	.	.	.	.	.
4F	.	.	.	.	.	.	.
4E	.	.	.	.	.	.	.
=221	=221	=221	=221	=221	=221	=221	=221
2D	.	0r	.	0r	.	0B]	.
2.E	.	.	.	.	.	.	.
4F	.	.	.	.	.	.	.
2G	.	.	.	.	.	.	.
=222	=222	=222	=222	=222	=222	=222	=222
2E	.	0r	.	0r	.	[0c	-si-
2.A	.	.	.	.	.	.	.
4G	.	.	.	.	.	.	.
[2F	.	.	.	.	.	.	.
=223	=223	=223	=223	=223	=223	=223	=223
2F]	.	0r	.	0r	.	0c]	.
4E	.	.	.	.	.	.	.
4D	.	.	.	.	.	.	.
2.E	-si-	.	.	.	.	.	.
4AA	.	.	.	.	.	.	.
=224	=224	=224	=224	=224	=224	=224	=224
0D	-cum	0r	.	0r	.	0d	-cum
=225	=225	=225	=225	=225	=225	=225	=225
0A	Sa-	0r	.	0F	Sa-	0r	.
=226	=226	=226	=226	=226	=226	=226	=226
1G	-lu-	0r	.	1E	-lu-	0r	.
1E	.	.	.	1C	.	.	.
=227	=227	=227	=227	=227	=227	=227	=227
1.F	-te-	0r	.	0D	-te-	0f	Sa-
4E	.	.	.	.	.	.	.
4D	.	.	.	.	.	.	.
=228	=228	=228	=228	=228	=228	=228	=228
0C	-ris	0r	.	0E	-ris	1e	-lu-
.	.	.	.	.	.	1c	.
=229	=229	=229	=229	=229	=229	=229	=229
0r	.	0r	.	1r	.	0d	-te-
.	.	.	.	1F	tu-	.	.
=230	=230	=230	=230	=230	=230	=230	=230
0r	.	0r	.	1E	-is	0e	-ris
.	.	.	.	1G	pro	.	.
=231	=231	=231	=231	=231	=231	=231	=231
0r	.	0r	.	1.F	me-	1r	.
.	.	.	.	.	.	1f	tu-
.	.	.	.	4E	.	.	.
.	.	.	.	4D	.	.	.
=232	=232	=232	=232	=232	=232	=232	=232
0r	.	0r	.	1.C#i	.	1e	-is
.	.	.	.	.	.	1g	pro
.	.	.	.	2BBni	.	.	.
=233	=233	=233	=233	=233	=233	=233	=233
0r	.	0r	.	0D	.	1.f	me-
.	.	.	.	.	.	4e	.
.	.	.	.	.	.	4d	.
=234	=234	=234	=234	=234	=234	=234	=234
0r	.	0r	.	0E	-ri-	1.c#i	-ri-
.	.	.	.	.	.	2Bni	.
=235	=235	=235	=235	=235	=235	=235	=235
*M3/1	*	*M3/1	*	*M3/1	*	*M3/1	*
*met(O/3)	*	*met(O/3)	*	*met(O/3)	*	*met(O/3)	*
!	!	!LO:TX:Z=5:t=Tenor&colon; pervasive coloration (here to end)	!	!	!	!	!
0F	Tam-	[0.D	Re	0.D	-tis	0.d	-tis
1A	.	.	.	.	.	.	.
=236	=236	=236	=236	=236	=236	=236	=236
1.A	-quam	1D]	.	0.r	.	0.r	.
.	.	0C	ut	.	.	.	.
2G	.	.	.	.	.	.	.
1E	.	.	.	.	.	.	.
=237	=237	=237	=237	=237	=237	=237	=237
0D	sum-	[0.D	re,	1A	Tam-	0f	Tam-
.	.	.	.	1B-	.	.	.
[1F	.	.	.	1A	.	1a	.
=238	=238	=238	=238	=238	=238	=238	=238
1F]	.	1D]	.	0d	.	1.a	-quam
0E	.	1r	.	.	.	.	.
.	.	.	.	.	.	2g	.
.	.	1r	.	1c#i	.	1e	.
=239	=239	=239	=239	=239	=239	=239	=239
0D	.	[0.A	la	0d	-quam	0f	sum-
1C	.	.	.	1r	.	1e	.
=240	=240	=240	=240	=240	=240	=240	=240
1AA	.	1A]	.	1r	.	1c	.
0BB-	.	0G	sol	0D	sum-	0d	.
=241	=241	=241	=241	=241	=241	=241	=241
0AA	-mum	[0.A	la,	1E	-mum	0c	-mum
.	.	.	.	1.F	.	.	.
[1D	che-	.	.	.	.	1A	.
.	.	.	.	2D	.	.	.
=242	=242	=242	=242	=242	=242	=242	=242
1D]	.	1A]	.	1D	che-	0d	che-
0AA	.	1r	.	1.E	.	.	.
.	.	1r	.	.	.	1c#i	.
.	.	.	.	2D	.	.	.
=243	=243	=243	=243	=243	=243	=243	=243
0.D	-phas	[0.d	re	0D	-phas	1d	-phas
.	.	.	.	.	.	1.a	tro-
.	.	.	.	1F	tro-	.	.
.	.	.	.	.	.	2g	.
=244	=244	=244	=244	=244	=244	=244	=244
1r	.	1d]	.	1D	.	1f	.
1r	.	0c	ut	0A	.	1.e	.
1AA	tro-	.	.	.	.	.	.
.	.	.	.	.	.	2d	.
=245	=245	=245	=245	=245	=245	=245	=245
0BB-	-pi-	[0.d	re.	1F	-pi-	0.d	-pi-
.	.	.	.	0G	.	.	.
[1GG	.	.	.	.	.	.	.
=246	=246	=246	=246	=246	=246	=246	=246
1GG]	.	1d]	.	1B-	.	0g	.
0D	-di-	1r	.	0A	-di-	.	.
.	.	1r	.	.	.	1f#i	-di-
=247	=247	=247	=247	=247	=247	=247	=247
1GG	-um,	[0.d	Re	1.G	-um,	0.g	-um,
0G	Va-	.	.	.	.	.	.
.	.	.	.	2A	.	.	.
.	.	.	.	1B-	.	.	.
=248	=248	=248	=248	=248	=248	=248	=248
1F	.	1d]	.	0A	.	0.r	.
0E	-le	0c	ut	.	.	.	.
.	.	.	.	1G	.	.	.
=249	=249	=249	=249	=249	=249	=249	=249
[0.D	ve-	[0.d	re,	0.A	Va-	0.f	Va-
=250	=250	=250	=250	=250	=250	=250	=250
1D]	.	1d]	.	1F	.	1d	.
0C	.	1r	.	0G	.	0e	.
.	.	1r	.	.	.	.	.
=251	=251	=251	=251	=251	=251	=251	=251
0.D	-rum	[0.A	la	1F	-le	0f	-le
.	.	.	.	1D	.	.	.
.	.	.	.	[1F	.	1d	.
=252	=252	=252	=252	=252	=252	=252	=252
0.r	.	1A]	.	1F]	.	0d	ve-
.	.	0G	sol	0E	ve-	.	.
.	.	.	.	.	.	1c#i	.
=253	=253	=253	=253	=253	=253	=253	=253
[0.F	in-	[0.A	la,	1D	-rum	1d	-rum
.	.	.	.	0d	in-	1.f	in-
.	.	.	.	.	.	2e	.
=254	=254	=254	=254	=254	=254	=254	=254
1F]	.	1A]	.	1c	-star	1.a	-star
0G	.	1r	.	0B-	.	.	.
.	.	.	.	.	.	2g	.
.	.	1r	.	.	.	2g	.
.	.	.	.	.	.	2f	.
=255	=255	=255	=255	=255	=255	=255	=255
1F	-star	[0.D	re	1.A	Or-	0.a	.
1.D	Or-	.	.	.	.	.	.
.	.	.	.	2G	.	.	.
.	.	.	.	1F	.	.	.
2C	.	.	.	.	.	.	.
=256	=256	=256	=256	=256	=256	=256	=256
1BB-	.	1D]	.	1D	-phe-	0.r	.
0AA	-phe-	0C#i	ut	1.E	-i-	.	.
.	.	.	.	2D	.	.	.
=257	=257	=257	=257	=257	=257	=257	=257
1r	.	[0.Dl	re.	[0.D	-cum.	0a	Or-
1r	.	.	.	.	.	.	.
1D	-i-	.	.	.	.	[1f	-phe-
=258	=258	=258	=258	=258	=258	=258	=258
[0.Dl	-cum.	0.D_	.	0.D]	.	2f]	.
.	.	.	.	.	.	2g	.
.	.	.	.	.	.	0a	-i-
=259	=259	=259	=259	=259	=259	=259	=259
0.D]	.	0.D]	.	0.Al	.	0.dl	-cum.
==	==	==	==	==	==	==	==
*-	*-	*-	*-	*-	*-	*-	*-
!!!RDF**kern: l=long note in original notation
!!!RDF**kern: i=editorial accidental
!!!ENC:	Will Watson 07/11/12
!!!END:	2015/12/06/ (text added)
!!!EED:	Jesse Rodin
!!!EEV:	2015/12/07/
!!!ONB:	Translated from MusicXML and edited on 2015/12/10/ by Craig Sapp
!!muse2ps: C^@{COM}^i2I150v85,85,85,150Q16c75
